!!!!SEGMENT: pl-wtm--r-275-m--004_moniuszko-stanislaw--pienia-zalobne-sanctus.krn
!!!cenid: 18xx:2974
!!!COM: Moniuszko, Stanisław
!!!COM-rismID: pe30008351
!!!CDT: 1819/05/05-1872/06/04
!!!CNT: Polish
!!!OPR: Pienia żałobne
!!!OTL: Sanctus
!!!OMV: 004
!!!PDT: 1869
!!!AGN: Sacred; Mass
!!!SMS-siglum: PL-Wtm
!!!SMS-shelfmark: R 275/M
!!!SMS-shelfwork: 001-004 M
!!!SMS-variant:
!!!SMS-altvar:
!!!NIFC-rismSourceID: 1001096617
!!!NIFC-rismChildID: 1001096617
!!!NIFC-islandoraID:
!!!URL-pdf-islandora:
!!!URL-scan:
!!!IIIF:
!!!ONB-nifc: UWAGA: tylko partytura kwartetu smyczkowego. Części: 1. Kyrie, 2. Graduale,
!!!OMD: Largo.
!!!AIN: 1 cbass 1 cello 1 viola 2 violn
!!!key:
**kern	**dynam	**kern	**dynam	**kern	**dynam	**kern	**dynam	**kern	**dynam
*part5	*part5	*part4	*part4	*part3	*part3	*part2	*part2	*part1	*part1
*staff5	*	*staff4	*	*staff3	*	*staff2	*	*staff1	*
*Icbass	*	*Icello	*	*Iviola	*	*Ivioln	*	*Ivioln	*
*I"[Contrabassi]	*	*I"[Violoncelli]	*	*I"[Viole]	*	*I"[Violini 2]	*	*I"[Violini 1]	*
*I'CB.	*	*I'Vcelli	*	*	*	*	*	*	*
*	*	*clefF4	*	*clefC3	*	*clefG2	*	*clefG2	*
*	*	*k[b-]	*	*k[b-]	*	*k[b-]	*	*k[b-]	*
*	*	*F:	*	*F:	*	*F:	*	*F:	*
*	*	*M4/4	*	*M4/4	*	*M4/4	*	*M4/4	*
*	*	*met(c)	*	*met(c)	*	*met(c)	*	*met(c)	*
=1	=1	=1	=1	=1	=1	=1	=1	=1	=1
*	*	*all\right	*	*all\right	*	*all\right	*	*all\right	*
!	!	!LO:TX:t=P:problem=all\right&colon; global	!	!LO:TX:t=P:problem=all\right&colon; global	!	!LO:TX:t=P:problem=all\right&colon; global	!	!LO:TX:t=P:problem=all\right&colon; global	!
!	!LO:DY:rj	!	!	!	!	!	!LO:DY:rj	!LO:TX:a:t=na Sanctus.	!LO:DY:rj
1FF	p	16r	p	16r	p	4.c/ 4.a	p	4.f/ 4.cc	p
.	.	(>16C\LL	.	(<16C/LL	.	.	.	.	.
.	.	16F\	.	16F/	.	.	.	.	.
.	.	16A\JJ	.	16A/JJ	.	.	.	.	.
!	!	!LO:TX:t=P:problem=mixed beam	!	!	!	!	!	!	!
.	.	8c\L)	.	8c'/L)	.	.	.	.	.
.	.	8C'\J	.	8C'/J	.	8g/	.	8b-/	.
*	*	*2\right	*	*	*	*	*	*	*
.	.	2F\	.	2F/	.	(<16f/LL	.	(<16a/LL	.
.	.	.	.	.	.	16A/	.	16A/	.
.	.	.	.	.	.	16c/	.	16c/	.
.	.	.	.	.	.	16f/JJ)	.	16f/JJ)	.
.	.	.	.	.	.	8f'/L	.	8a'/L	.
.	.	.	.	.	.	8A'/J	.	8A'/J	.
=2	=2	=2	=2	=2	=2	=2	=2	=2	=2
1FF	.	16r	.	16r	.	4.f/	.	4.a/	.
.	.	(>16C#X\LL	.	(<16C#X/LL	.	.	.	.	.
.	.	16F\	.	16F/	.	.	.	.	.
.	.	16A\JJ	.	16A/JJ	.	.	.	.	.
.	.	8c#X\L)	.	8c#X/L)	.	.	.	.	.
.	.	8A'\J	.	8A'/J	.	8e/	.	8g/	.
.	.	2F\	.	2F/	.	(<16d/LL	.	(<16f/LL	.
.	.	.	.	.	.	16A/	.	16A/	.
.	.	.	.	.	.	16d/	.	16d/	.
.	.	.	.	.	.	16f/JJ)	.	16f/JJ)	.
.	.	.	.	.	.	8a'/L	.	8a'/L	.
.	.	.	.	.	.	8d'/J	.	8d'/J	.
=3	=3	=3	=3	=3	=3	=3	=3	=3	=3
*	*	*	*	*	*	*2\right	*	*	*
1FF	.	16r	.	16r	.	2b-\	.	4.f\ 4.dd	.
.	.	(>16F\LL	.	(<16F/LL	.	.	.	.	.
.	.	16B-\	.	16B-/	.	.	.	.	.
.	.	16d\JJ	.	16d/JJ	.	.	.	.	.
!!mixed beam:problem
!	!	!	!	!LO:TX:t=P:problem=mixed beam	!	!	!	!	!
.	.	8f'\L)	.	8f'\L)	.	.	.	.	.
.	.	8F'\J	.	8F'/J	.	.	.	8dd-X\	.
!!mixed beam:problem
!	!	!	!	!	!	!	!	!LO:TX:t=P:problem=mixed beam	!
.	.	4.B-\	.	4.G/	.	(<16e/LL	.	(>16cc\LL	.
.	.	.	.	.	.	16c/	.	16c/	.
.	.	.	.	.	.	16e/	.	16e/	.
.	.	.	.	.	.	16cc/JJ)	.	16cc/JJ)	.
.	.	.	.	.	.	8e'/L	.	8g'/L	.
.	.	8c\	.	8A/	.	8f'/J	.	8a'/J	.
!!LO:LB:g=original
=4	=4	=4	=4	=4	=4	=4	=4	=4	=4
1FF@	.	(>16d\LL	.	16d/LL	.	4.g/	.	4.b-\	.
.	.	16D\	.	(<16D/	.	.	.	.	.
.	.	16G\	.	16F/	.	.	.	.	.
.	.	16B-\JJ	.	16A/JJ	.	.	.	.	.
.	.	8d'\L)	.	8d'\L)	.	.	.	.	.
.	.	8B-'\J	.	8B-'\J	.	8f/	.	8cc\	.
.	.	4.G\	.	4.G/	.	(<8e/L	.	(<16cc/LL	.
.	.	.	.	.	.	.	.	16b-/	.
.	.	.	.	.	.	16g/L	.	16g/	.
.	.	.	.	.	.	16e/JJ)	.	16e/JJ)	.
!!mixed beam:problem
!	!	!	!	!	!	!	!	!LO:TX:t=P:problem=mixed beam	!
.	.	.	.	.	.	8c/L	.	8c'</L	.
.	.	8r	.	8r	.	8c/J	.	8cc'>\J	.
=5	=5	=5	=5	=5	=5	=5	=5	=5	=5
2FF	.	16r	.	16r	.	4.a/	.	4.cc\	.
.	.	(>16C\LL	.	(<16C/LL	.	.	.	.	.
.	.	16E\	.	16F/	.	.	.	.	.
.	.	16A\JJ	.	16A/JJ)	.	.	.	.	.
!!mixed beam:problem
!	!	!LO:TX:t=P:problem=mixed beam	!	!	!	!	!	!	!
.	.	8c\L)	.	8c/L	.	.	.	.	.
.	.	8C/J	.	8C/J	.	8g/	.	8b-\	.
4.F	.	4.F\	.	4.F/	.	(<16f/LL	.	(<16a/LL	.
.	.	.	.	.	.	16A/	.	16A/	.
.	.	.	.	.	.	16c/	.	16c/	.
.	.	.	.	.	.	16f/JJ)	.	16f/JJ)	.
.	.	.	.	.	.	8a'/L	.	8a'/L	.
8E	.	8E\	.	8E/	.	8A'/J	.	8A'/J	.
=6	=6	=6	=6	=6	=6	=6	=6	=6	=6
1D	.	(<16D/LL	.	16D/LL	.	4.A^</ 4.f	.	4.d^</ 4.a	.
.	.	16AA/	.	16r	.	.	.	.	.
.	.	16D/	.	16D/	.	.	.	.	.
.	.	16F/JJ	.	16F/JJ	.	.	.	.	.
!!mixed beam:problem
!	!	!LO:TX:t=P:problem=mixed beam	!	!	!	!	!	!	!
.	.	8A'>\L)	.	[<2A/	.	.	.	.	.
.	.	8AA'</J	.	.	.	8c#X/ 8e	.	8g/	.
.	.	2D\	.	.	.	16d/	.	(<16f/LL	.
.	.	.	.	.	.	(<16d/LL	.	16d/	.
.	.	.	.	.	.	16f/	.	16f/	.
.	.	.	.	.	.	16a/JJ	.	16a/JJ	.
.	.	.	.	8A/L]	.	8dd'/L)	.	8dd\L)	.
.	.	.	.	8d/J	.	8a'/J	.	8ff\J	.
!!LO:LB:g=original
=7	=7	=7	=7	=7	=7	=7	=7	=7	=7
1GG	.	16D\LL	.	(<16d/LL	.	4.g/	.	4.ee^>\	.
.	.	(>16G\	.	16G/	.	.	.	.	.
.	.	16Bn\	.	16Bn/	.	.	.	.	.
.	.	16d\JJ	.	16d/JJ)	.	.	.	.	.
.	.	8g\L)	.	8g'\L	.	.	.	.	.
.	.	8B\J	.	8B'\J	.	8f/	.	8cc\	.
.	.	4c\	.	4.c\	.	(16e/LL	.	(<16cc/LL	.
.	.	.	.	.	.	16g/	.	16g/	.
.	.	.	.	.	.	16e/	.	16e/	.
.	.	.	.	.	.	16g/JJ)	.	16g/JJ)	.
.	.	4r	.	.	.	8e'/L	.	8g'/L	.
.	.	.	.	8c\	.	8f'/J	.	8a'/J	.
=8	=8	=8	=8	=8	=8	=8	=8	=8	=8
1GG	.	16r	.	(<16c/LL	.	4.e/	.	4.cc\	.
.	.	(<16GG/LL	.	16G/	.	.	.	.	.
.	.	16C/	.	16E/	.	.	.	.	.
.	.	16E/JJ)	.	16G/JJ)	.	.	.	.	.
!!mixed beam:problem
!	!	!LO:TX:t=P:problem=mixed beam	!	!	!	!	!	!	!
.	.	8G'>\L	.	8G'/L	.	.	.	.	.
.	.	8GG'</J	.	8G'/J	.	8f/	.	8dd\	.
.	.	4G\	.	4G/	.	(<16d/LL	.	(<16bn/LL	.
.	.	.	.	.	.	16g/	.	16g/	.
.	.	.	.	.	.	16d/	.	16d/	.
.	.	.	.	.	.	16Bn/JJ)	.	16Bn/JJ)	.
.	.	8GG/	.	4r	.	8G/L	.	8G/L	.
.	.	8r	.	.	.	8g/J	.	8g/J	.
=9	=9	=9	=9	=9	=9	=9	=9	=9	=9
2AA	.	16r	.	16r	.	2c^/ 2e	.	4cc^>\	.
.	.	(>16E\LL	.	(<16E/LL	.	.	.	.	.
.	.	16A\	.	16A/	.	.	.	.	.
.	.	16c\JJ	.	16c/JJ)	.	.	.	.	.
!	!	!LO:TX:b:t=cres._:problem=dynamics with extention lines	!LO:HP:t=cres.:ext=ud	!	!	!	!	!	!LO:HP:t=cres
.	.	8e'\L)	<	8e'\L	.	.	<	8.bn/L	<
.	.	8A'\J	.	8A'\J	.	.	.	.	.
.	.	.	.	.	.	.	.	16a/Jk	.
*	*	*clefC4	*	*	*	*	*	*	*
!LO:ACC:color=blue	!	!	!	!	!	!	!	!	!
2BBn	.	4f^>\	.	16r	.	16r	.	4.g/	.
.	.	.	.	(<16G/LL	.	(<16G/LL	.	.	.
.	.	.	.	16Bn/	.	16Bn/	.	.	.
.	.	.	.	16d/JJ)	.	16d/JJ	.	.	.
!!mixed beam:problem
!	!	!	!	!LO:TX:t=P:problem=mixed beam	!	!	!	!	!
.	.	8.e\L	[	8g\L	.	8g/L)	.	.	.
.	.	.	.	8G/J	.	8G/J	.	8a/	.
.	.	16d\Jk	.	.	.	.	.	.	.
!!LO:PB:g=original
=10	=10	=10	=10	=10	=10	=10	=10	=10	=10
2C	.	4..c\	.	16r	.	16r	.	4ee^>\	.
.	.	.	.	(<16G/LL	.	(<16G/LL	.	.	.
.	.	.	.	16c/	.	16c/	.	.	.
.	.	.	.	16e/JJ)	.	16e/JJ	.	.	.
!!mixed beam:problem
!	!	!	!	!LO:TX:t=P:problem=mixed beam	!	!	!	!	!
.	.	.	.	8g\L	.	8g/L)	.	8.dd\L	.
.	.	.	.	8G/J	.	8G/J	.	.	.
.	.	16e\	.	.	.	.	.	16cc\Jk	.
!!mixed beam:problem
!	!	!	!	!	!	!	!	!LO:TX:t=P:problem=mixed beam	!
2D/	.	4d^>\	.	4d^>\	.	16r	.	(>16bn\LL	.
.	.	.	.	.	.	(<16d/LL	.	16d/	.
.	.	.	.	.	.	16g/	.	16g/	.
.	.	.	.	.	.	16bn/JJ)	.	16b/JJ)	.
!!mixed beam:problem
!	!	!	!	!	!	!LO:TX:t=P:problem=mixed beam	!	!	!
.	.	8.c\L	.	8.c\L	.	8dd\L	.	8dd\L	.
.	.	.	.	.	.	8g/J	.	8gg\J	.
.	.	16Bn\Jk	.	16Bn\Jk	.	.	.	.	.
=11	=11	=11	=1	=11	=11	=11	=11	=11	=11
*2\right	*	*	*	*	*	*	*	*	*
!	!LO:DY:rj	!	!LO:DY:rj	!	!LO:DY:rj	!	!LO:DY:rj	!	!LO:DY:rj
2E	f	(>16c\LL	f	(<16c/LL	f	(>16cc\LL	f	(>16gg\LL	f
.	.	16G\	.	16C/	.	16ee\	.	16ee\	.
.	.	16c\	.	16G/	.	16cc\	.	16cc\	.
.	.	16e\JJ)	.	16c/JJ)	.	16g\JJ)	.	16g\JJ)	.
.	.	8.g\L	.	16r	.	(<16g/LL	.	8.ff\L	.
.	.	.	.	(>16cc\LL	.	16cc/	.	.	.
.	.	.	.	16g\	.	16g/	.	.	.
.	.	16c\Jk	.	16e\JJ)	.	16e/JJ)	.	16ee\Jk	.
!!mixed beam:problem
*	*	*	*	*2\right	*	*	*	*	*
!	!	!	!	!	!	!	!	!LO:TX:t=P:problem=mixed beam	!
2F	.	2A\	.	[>2c\	.	16r	.	(16dd\LL	.
.	.	.	.	.	.	(<16d/LL	.	16d/	.
.	.	.	.	.	.	16f/	.	16f/	.
.	.	.	.	.	.	16a/JJ)	.	16a/JJ	.
.	.	.	.	.	.	(<16dd/LL	.	8dd\L)	.
.	.	.	.	.	.	16a/	.	.	.
.	.	.	.	.	.	16f/	.	8ff\J	.
.	.	.	.	.	.	16d/JJ)	.	.	.
=12	=12	=12	=12	=12	=12	=12	=12	=12	=12
4.G	.	16r	.	(<16c/LL]	.	4.g/	.	4.ee\	.
.	.	(>16G\LL	.	16G/	.	.	.	.	.
.	.	16e\	.	16e/	.	.	.	.	.
.	.	16c\JJ)	.	16c/JJ)	.	.	.	.	.
.	.	4Bntt\	.	4Bn^<tt/	.	.	.	.	.
8GG	.	.	.	.	.	8f/	.	8dd\	.
.	.	16qqA/LL	.	16qqA/LL	.	.	.	.	.
!	!	!LO:TX:t=P:problem=mixed beam	!	!	!	!	!	!	!
.	.	16qqB/JJ	.	16qqB/JJ	.	.	.	.	.
*	*	*	*	*	*	*	*	*2\right	*
2C	.	16c/LL	.	(<16c/LL	.	(<16e/LL	.	2cc\	.
.	.	(<16C/	.	16C/	.	16c/	.	.	.
.	.	16E/	.	16E/	.	16e/	.	.	.
.	.	16G/JJ	.	16G/JJ	.	16g/JJ	.	.	.
!!mixed beam:problem
!	!	!LO:TX:t=P:problem=mixed beam	!	!	!	!LO:TX:t=P:problem=mixed beam	!	!	!
.	.	8c\L)	.	8c/L)	.	8cc\L)	.	.	.
.	.	8C/J	.	8C/J	.	8c/J	.	.	.
!!LO:LB:g=original
=13	=13	=13	=13	=13	=13	=13	=13	=13	=13
!	!LO:DY:rj	!	!LO:DY:rj	!	!	!	!	!	!LO:DY:rj
2A	ff	16r	ff	16r	ff	16r	ff	4.d/ 4.cc^<	ff
.	.	(<16C/LL	.	(<16C/LL	.	(<16c/LL	.	.	.
.	.	16D/	.	16D/	.	16d/	.	.	.
.	.	16F#X/JJ)	.	16F#X/JJ)	.	16f#X/JJ)	.	.	.
!!mixed beam:problem
!	!	!LO:TX:t=P:problem=mixed beam	!	!LO:TX:t=P:problem=mixed beam	!	!LO:TX:t=P:problem=mixed beam	!	!	!
.	.	8c\L	.	8c'>\L	.	8cc'>\L	.	.	.
.	.	8C/J	.	8C'</J	.	8c'</J	.	8d/ 8cc	.
2G	.	16r	.	16r	.	16r	.	4.d/ 4.cc	.
.	.	(<16C/LL	.	(<16C/LL	.	(<16c/LL	.	.	.
.	.	16D/	.	16D/	.	16d/	.	.	.
.	.	16G/JJ)	.	16G/JJ)	.	16g/JJ)	.	.	.
!!mixed beam:problem
!	!	!LO:TX:t=P:problem=mixed beam	!	!LO:TX:t=P:problem=mixed beam	!	!LO:TX:t=P:problem=mixed beam	!	!	!
.	.	8c\L	.	8c'>\L	.	8cc'>\L	.	.	.
.	.	8C/J	.	8C'</J	.	8c'</J	.	8d/ 8cc	.
=14	=14	=14	=14	=14	=14	=14	=14	=14	=14
2F#	.	16r	.	16r	.	16r	.	[<8d/L [>8cc	.
.	.	(<16C/LL	.	(<16C/LL	.	(<16c/LL	.	.	.
.	.	16D/	.	16D/	.	16d/	.	32d/LL] 32cc]	.
.	.	.	.	.	.	.	.	32dd/	.
.	.	16A/JJ)	.	16A/JJ)	.	16a/JJ)	.	32cc/	.
.	.	.	.	.	.	.	.	32bn/JJJ	.
!!mixed beam:problem
!	!	!LO:TX:t=P:problem=mixed beam	!	!LO:TX:t=P:problem=mixed beam	!	!LO:TX:t=P:problem=mixed beam	!	!	!
.	.	8c'>\L	.	8c'>\L	.	8cc'>\L	.	8cc/L	.
.	.	8C'</J	.	8C'</J	.	8c'</J	.	8d/J 8cc	.
2G	.	16r	.	16r	.	16r	.	4.e/ 4.cc	.
.	.	(<16C/LL	.	(<16C/LL	.	(<16c/LL	.	.	.
.	.	16E/	.	16E/	.	16e/	.	.	.
.	.	16G/JJ)	.	16G/JJ)	.	16g/JJ)	.	.	.
!!mixed beam:problem
!	!	!LO:TX:t=P:problem=mixed beam	!	!LO:TX:t=P:problem=mixed beam	!	!LO:TX:t=P:problem=mixed beam	!	!	!
.	.	8c'>\L	.	8c'>\L	.	8cc'>\L	.	.	.
.	.	8C'</J	.	8C'</J	.	8c'</J	.	8cc'\	.
=15	=15	=15	=15	=15	=15	=15	=15	=15	=15
2A-X	.	16r	.	16r	.	16r	.	4.f/ 4.cc	.
.	.	(<16C/LL	.	(<16C/LL	.	(<16c/LL	.	.	.
.	.	16F/	.	16F/	.	16f/	.	.	.
.	.	16A-X/JJ)	.	16A-X/JJ)	.	16a-X/JJ)	.	.	.
!!mixed beam:problem
!	!	!LO:TX:t=P:problem=mixed beam	!	!LO:TX:t=P:problem=mixed beam	!	!LO:TX:t=P:problem=mixed beam	!	!	!
.	.	8c\L	.	8c'>\L	.	8cc'>\L	.	.	.
.	.	8C/J	.	8C'</J	.	8c'</J	.	8f/ 8cc	.
2G	.	16r	.	16r	.	16r	.	4.e-X/ 4.cc	.
.	.	(<16C/LL	.	(<16C/LL	.	(<16c/LL	.	.	.
.	.	16E-X/	.	16E-X/	.	16e-X/	.	.	.
.	.	16G/JJ)	.	16G/JJ)	.	16g/JJ)	.	.	.
!!mixed beam:problem
!	!	!LO:TX:t=P:problem=mixed beam	!	!LO:TX:t=P:problem=mixed beam	!	!LO:TX:t=P:problem=mixed beam	!	!	!
.	.	8c'>\L	.	8c'>\L	.	8cc'\L	.	.	.
.	.	8C'</J	.	8C'</J	.	8c'/J	.	8e-/ 8cc	.
!!LO:LB:g=original
=16	=16	=16	=16	=16	=16	=16	=16	=16	=16
2Fn	.	16r	.	16r	.	16r	.	8cc\L	.
.	.	(<16C/LL	.	(<16C/LL	.	(<16c/LL	.	.	.
.	.	16F/	.	16F/	.	16f/	.	(>32dd-X\LL	.
.	.	.	.	.	.	.	.	32cc\	.
.	.	16A-X/JJ)	.	16A-X/JJ)	.	16a-X/JJ	.	32b-X\	.
.	.	.	.	.	.	.	.	32cc\JJJ)	.
!!mixed beam:problem
!	!	!LO:TX:t=P:problem=mixed beam	!	!	!	!	!	!	!
.	.	8c\L	.	8c'/L	.	8cc'/L)	.	8.ee-X\L	.
.	.	8C/J	.	8C'/J	.	8c'/J	.	.	.
.	.	.	.	.	.	.	.	16dd-\Jk	.
2G-X	.	16r	.	16r	.	16r	.	4.cc\	.
.	.	(<16E-X/LL	.	(<16E-X/LL	.	(<16e-X/LL	.	.	.
.	.	16A-/	.	16A-/	.	16a-X/	.	.	.
.	.	16c/JJ)	.	16c/JJ)	.	16cc/JJ)	.	.	.
!!mixed beam:problem
!	!	!	!	!LO:TX:t=P:problem=mixed beam	!	!LO:TX:t=P:problem=mixed beam	!	!	!
.	.	8e-X\L	.	8e-X'>\L	.	8ee-X'>\L	.	.	.
.	.	8A-\J	.	8A-'</J	.	8a-'</J	.	8cc\	.
=17	=17	=17	=17	=17	=17	=17	=17	=17	=17
!!mixed beam:problem
!	!LO:DY:rj	!	!LO:DY:rj	!	!LO:DY:rj	!	!LO:DY:rj	!LO:TX:t=P:problem=mixed beam	!LO:DY:rj
4.F^>	ff	4.A-X\^>	ff	(>16A-X^>\LL	ff	(<16a-X^>/LL	ff	(>16dd-X^>\LL	ff
.	.	.	.	16d-X\	.	16d-X/	.	16d-X/	.
.	.	.	.	16f\	.	16f/	.	16f/	.
.	.	.	.	16A-\JJ)	.	16a-/JJ)	.	16a-X/JJ)	.
.	.	.	.	8d-\L	.	8a-'/L	.	8dd-'\L	.
8G-X	.	8An\	.	8e\J	.	8an'/J	.	8cc'\J	.
4.G-^>	.	(>16A^>\LL	.	(>16e^>\LL	.	(<16a^</LL	.	(>16ee-X^>\LL	.
.	.	16c\	.	16c\	.	16cc/	.	16cc\	.
.	.	16A\	.	16An\	.	16a/	.	16an\	.
.	.	16G-X\JJ)	.	16G-X\JJ)	.	16g-X/JJ)	.	16g-X\JJ)	.
!!mixed beam:problem
!	!	!LO:TX:t=P:problem=mixed beam	!	!	!	!	!	!LO:TX:t=P:problem=mixed beam	!
.	.	8E-X'</L	.	8E-X'/L	.	8e-X'/L	.	8e-X'/L	.
8G-	.	8A'>\J	.	8c'/J	.	8e-'/J	.	8ee-'\J	.
=18	=18	=18	=18	=18	=18	=18	=18	=18	=18
!!mixed beam:problem
!	!	!	!	!	!	!	!	!LO:TX:t=P:problem=mixed beam	!
4.Gn^>	.	4.B-\^>	.	(>16B-X^>\LL	.	(<16b-^</LL	.	(>16ee-X^>\LL	.
.	.	.	.	16e-X\	.	16e-X/	.	16e-X/	.
.	.	.	.	16B-\	.	16b-/	.	16b-/	.
.	.	.	.	16e-\JJ)	.	16ee-X/JJ)	.	16ee-/JJ)	.
.	.	.	.	8e-'\L	.	8b-'/L	.	8ee-'\L	.
8A-X	.	8Bn\	.	8f'\J	.	8bn'\J	.	8dd'\J	.
4.A-^>	.	(>16B^>\LL	.	(>16f^>\LL	.	(<16b^</LL	.	(>16ff^>\LL	.
.	.	16dn\	.	16dn\	.	16ddn/	.	16ddn\	.
.	.	16B\	.	16Bn\	.	16b/	.	16bn\	.
.	.	16A-X\JJ)	.	16A-X\JJ)	.	16a-X/JJ)	.	16a-X\JJ)	.
!!mixed beam:problem
!	!	!	!	!LO:TX:t=P:problem=mixed beam	!	!	!	!LO:TX:t=P:problem=mixed beam	!
.	.	8F'\L	.	8F'</L	.	8f'/L	.	8f'/L	.
8A-	.	8B'\J	.	8d'>\J	.	8f'/J	.	8ff'\J	.
!!LO:PB:g=original
=19	=19	=19	=19	=19	=19	=19	=19	=19	=19
!!mixed beam:problem
!	!	!	!	!LO:TX:t=P:problem=mixed beam	!	!	!	!	!
2AAn\@	.	16r	.	(>16c\LL^>	.	(<16cc^</LL	.	4.ff^\	.
.	.	(<16C/LL	.	16C/	.	16c/	.	.	.
.	.	16F/	.	16F/	.	16f/	.	.	.
!	!	!	!	!	!	!	!	!	!LO:HP:a:i:t=dimin.
.	.	16Bn/JJ)	.	16A/JJ)	.	16a/JJ)	.	.	>
!	!	!	!	!	!	!	!LO:HP:a:i:t=dimin.	!	!
.	.	8d\L	.	8c'/L	.	8cc/	>	.	.
.	.	8F\J	>	8F'/J	.	4f/	.	8ee-X\	.
4BB\@	.	16r	.	16r	.	.	.	(>8ee-^>\L	.
.	.	(>16F\LL	.	(<16F/LL	>	.	.	.	.
.	.	16B\	.	16c/	.	4f/	.	8dd-X\J)	.
.	.	16F\JJ)	.	16F/JJ)	.	.	.	.	.
4C\@	.	16r	.	16r	.	.	.	(>8dd-^>\L	.
.	.	(>16F\LL	.	(<16F/LL	.	.	.	.	.
.	.	16A-X\	.	16A-X/	.	[<8f/	.	[>8cc\J)	.
.	.	16F\JJ)	.	16F/JJ)	.	.	.	.	.
=20	=20	=20	=20	=20	=20	=20	=20	=20	=20
4D-X@	.	16r	.	16r	.	16f/]	.	8cc\]	.
.	.	(>16F\LL	.	(16F/LL	.	(<16f/LL	.	.	.
!	!	!	!	!	!	!	!	!	!LO:HP:a
.	.	16A-X\	.	16A-X/	.	16A-X/	.	4cc\	<
!	!	!	!	!	!LO:HP:i:t=cres	!	!	!	!
.	.	16c\JJ)	<	16c/JJ)	<	16c/JJ)	<	.	.
4Dn@	.	16r	.	16r	.	16r	.	.	.
.	.	(>16A-\LL	.	(>16A-\LL	.	(<16A-/LL	.	.	.
.	.	16c\	.	16c\	.	16c/	.	4cc\	.
.	.	16f\JJ)	.	16f\JJ)	.	16f/JJ)	.	.	.
4E-X@	.	16r	.	16r	.	16r	.	.	.
.	.	(>16c\LL	.	(>16c\LL	.	(<16c/LL	.	.	.
.	.	16e-X\	.	16e-X\	.	16e-X/	.	4cc\	.
.	.	16A-\JJ)	.	16A-\JJ)	.	16A-/JJ)	.	.	.
4En@	.	16r	.	16r	.	16r	.	.	.
.	.	16A-\LL	.	(>16A-\LL	.	(<16A-/LL	.	.	.
.	.	16c\	.	16c\	.	16c/	.	8cc\	[
.	.	16F\JJ	.	16f\JJ)	.	16a-X/JJ)	.	.	.
=21	=21	=21	=21	=21	=21	=21	=21	=21	=21
!	!	!	!LO:DY:rj	!	!LO:DY:rj	!	!LO:DY:rj	!	!LO:DY:rj
[>2.F	.	(<16F/LL	ff	16c/LL	ff	(<16an^</LL	ff	4.cc^>	ff
.	.	16C/	.	16C/	.	16c/	.	.	.
.	.	16F/	.	16F/	.	16f/	.	.	.
.	.	16An/JJ)	.	16An/JJ	.	16A/JJ)	.	.	.
!!mixed beam:problem
!	!	!LO:TX:t=P:problem=mixed beam	!	!LO:TX:t=P:problem=mixed beam	!	!	!	!	!
.	.	8c'>\L	.	8c'>\L	.	8c'/L	.	.	.
.	.	8C'</J	.	8C'</J	.	8e'/J	.	8g'\ 8b-	.
.	.	4.F\	.	4F/	.	(<16f/LL	.	(<16a/LL	.
.	.	.	.	.	.	16c/	.	16c/	.
.	.	.	.	.	.	16f/	.	16f/	.
.	.	.	.	.	.	16g/JJ)	.	16g/JJ)	.
8F]L	.	.	.	8ryy	.	8a'/L	.	8a'/L	.
8FJ	.	8A/	.	8A/	.	8c'/J	.	8a'/J	.
!!LO:LB:g=original
=22	=22	=22	=22	=22	=22	=22	=22	=22	=22
4E	.	4.E^</ 4.c#X	.	4.E^</ 4.c#X	.	(<16c#X^</LL	.	(<16a^</LL 16ee	.
.	.	.	.	.	.	16e/	.	16e/	.
.	.	.	.	.	.	16g/	.	16g/	.
.	.	.	.	.	.	16a/JJ)	.	16a/JJ)	.
4AA	.	.	.	.	.	8ee'>\L	.	8ee\L|	.
.	.	8A/	.	8A/	.	8c#'</J 8e/	.	8g\J 8a|	.
2D	.	(<16F/LL	.	(<16F/LL	.	(<16d/LL	.	4.f/ 4.a	.
.	.	16A/	.	16A/	.	16A/	.	.	.
.	.	16d/	.	16d/	.	16d/	.	.	.
.	.	16e/JJ)	.	16e/JJ)	.	16e/JJ)	.	.	.
!!mixed beam:problem
!	!	!LO:TX:t=P:problem=mixed beam	!	!LO:TX:t=P:problem=mixed beam	!	!	!	!	!
.	.	8f\L	.	8f'>\L	.	8f/L	.	.	.
.	.	8F/J	.	8F'</J	.	8f/J	.	8ff\	.
=23	=23	=23	=23	=23	=23	=23	=23	=23	=23
!LO:SIC:v:s:t=4BB-	!	!	!	!	!	!	!	!	!
4BB	.	16r	.	16r	.	(<4d/	.	4ff^>\	.
.	.	(<16F/LL	.	(<16F/LL	.	.	.	.	.
.	.	16G/	.	16G/	.	.	.	.	.
.	.	16F/JJ)	.	16d/JJ)	.	.	.	.	.
!!mixed beam:problem
!	!	!	!	!LO:TX:t=P:problem=mixed beam	!	!	!	!	!
4BBn	.	8A-X^</L	.	8f\L	.	4d-X/)	.	8f/L	.
.	.	8F/J	.	8F/J	.	.	.	8g/J	.
2C	.	(>8An^>\L	.	(<8c^</L	.	(<16c/LL	.	8a/L	.
.	.	.	.	.	.	16dn/	.	.	.
.	.	16B-\L	.	16B-/L	.	16e/	.	16g/L	.
.	.	16A\JJ)	.	16A/JJ)	.	16f/JJ)	.	16a/JJ	.
.	.	8G\L	.	8G'/L	.	4e/	.	8b-/L	.
.	.	8c'\J	.	8C'/J	.	.	.	8g/J	.
=24	=24	=24	=24	=24	=24	=24	=24	=24	=24
2F	.	16A\	.	16r	.	4f/	.	4f/	.
.	.	(<16C/LL	.	(<16C/LL	.	.	.	.	.
.	.	16F/	.	16F/	.	.	.	.	.
.	.	16A/JJ)	.	16A/JJ)	.	.	.	.	.
!!mixed beam:problem
!	!	!LO:TX:t=P:problem=mixed beam	!	!	!	!	!	!	!
.	.	8c'>\L	.	8c'/L	.	8r	.	8r	.
!	!	!	!	!	!	!	!LO:DY:rj	!	!LO:DY:rj
.	.	8C^</J	.	8C^</J	.	8f/ 8a	ff	8cc'\	ff
!	!LO:DY:rj	!	!	!	!	!	!	!	!
2F^>	ff	(<16F^</LL	.	16C^</LL 16A	.	4.f^</ 4.a	.	4.a^>\ 4.ff	.
.	.	16C/	.	(<16C/	.	.	.	.	.
.	.	16F/	.	16F/	.	.	.	.	.
.	.	16A/JJ)	.	16A/JJ)	.	.	.	.	.
!	!	!LO:TX:t=P:problem=mixed beam	!	!	!	!	!	!	!
.	.	8c'>\L	.	8c'/L	.	.	.	.	.
.	.	[<8C^</J	.	[<8C^</J	.	8g/ 8b-	.	8ee\	.
!!LO:LB:g=original
=25	=25	=25	=25	=25	=25	=25	=25	=25	=25
!	!	!LO:TX:t=P:problem=brak zakończenia ligatury	!	!	!	!	!	!	!
2F	.	16C/]	.	16C/]	.	[<4g/ [>4b-	.	[>4gg\	.
.	.	(<16C/LL	.	(<16C/LL	.	.	.	.	.
.	.	16E/	.	16E/	.	.	.	.	.
.	.	16G/JJ)	.	16G/JJ)	.	.	.	.	.
!!mixed beam:problem
!	!	!LO:TX:t=P:problem=mixed beam	!	!LO:TX:t=P:problem=mixed beam	!	!	!	!	!
.	.	8c'>\L	.	8c\L	.	8g/] 8b-]	.	8gg\]	.
.	.	[<8C^</J	.	[<8C^</J	.	8r	.	8r	.
4.F	.	16C/]	.	16C/]	.	2r	.	2r	.
!	!	!	!LO:DY:a	!	!LO:DY:a	!	!	!	!
.	.	(<16C/LL	p	(<16C/LL	p	.	.	.	.
.	.	16E/	.	16E/	.	.	.	.	.
.	.	16G/JJ)	.	16G/JJ)	.	.	.	.	.
!!mixed beam:problem
!	!	!	!	!LO:SIC:v:s=c	!	!	!	!	!
!	!	!LO:TX:t=P:problem=mixed beam	!	!LO:TX:t=P:problem=mixed beam	!	!	!	!	!
.	.	8c\L	.	8d\L	.	.	.	.	.
8F	.	[<8F^</J [<8C	.	[<8F^</J	.	.	.	.	.
=26	=26	=26	=26	=26	=26	=26	=26	=26	=26
4.F	.	16F/LL] 16C]	.	16F/LL]	.	1ryy	.	1ryy	.
.	.	(<16C/	.	(<16C/	.	.	.	.	.
.	.	16F/	.	16F/	.	.	.	.	.
.	.	16A/JJ)	.	16A/JJ)	.	.	.	.	.
.	.	8C'/L	.	8c'/L	.	.	.	.	.
8F	.	[<8C^</J	.	[<8C^</J	.	.	.	.	.
4.F	.	16C/]	.	16C/]	.	.	.	.	.
.	.	16C'/LL	.	16C'/LL	.	.	.	.	.
.	.	16F'/	.	16F'/	.	.	.	.	.
.	.	16C'/JJ	.	16C'/JJ	.	.	.	.	.
.	.	8C/L	.	8c'/L	.	.	.	.	.
8F	.	[<8C^</J	.	[<8C^</J	.	.	.	.	.
=27	=27	=27	=27	=27	=27	=27	=27	=27	=27
4.F	.	16C/LL]	.	16C/LL]	.	1ryy	.	1ryy	.
.	.	(<16D-X/	.	(<16D-X/	.	.	.	.	.
.	.	16F/	.	16F/	.	.	.	.	.
.	.	16B-/JJ)	.	16B-/JJ)	.	.	.	.	.
.	.	8F'/L	.	[>4F/	.	.	.	.	.
8F	.	8F'/J	.	.	.	.	.	.	.
*	*	*clefF4	*	*	*	*	*	*	*
4.F	.	16r	.	16F/]	.	.	.	.	.
.	.	(<16BB-/LL	.	16r	.	.	.	.	.
.	.	16D-X/	.	8r	.	.	.	.	.
.	.	16BB-/JJ)	.	.	.	.	.	.	.
.	.	8FF'/L	.	4r	.	.	.	.	.
8F	.	8FF'/J	.	.	.	.	.	.	.
!!LO:PB:g=original
=28	=28	=28	=28	=28	=28	=28	=28	=28	=28
4.F	.	16r	.	16r	.	1r	.	1r	.
.	.	16C'\LL	.	16C'/LL	.	.	.	.	.
.	.	16F'\	.	16F'/	.	.	.	.	.
.	.	16C'\JJ	.	16C'/JJ	.	.	.	.	.
.	.	[>4F\	.	[<4F/	.	.	.	.	.
8F	.	.	.	.	.	.	.	.	.
.	.	.	.	.	.	.	.	.	.
4.F	.	16F\LL]	.	16F/LL]	.	.	.	.	.
.	.	16C'\	.	16C'/	.	.	.	.	.
.	.	16F'\	.	16F'/	.	.	.	.	.
.	.	16C'\JJ	.	16C'/JJ	.	.	.	.	.
.	.	[>4F\	.	[<4F/	.	.	.	.	.
8F	.	.	.	.	.	.	.	.	.
=29	=29	=29	=29	=29	=29	=29	=29	=29	=29
4F	.	4F\]	.	4F/]	.	1r	.	1r	.
4r	.	4r	.	4r	.	.	.	.	.
2r	.	2r	.	2r	.	.	.	.	.
=30	=30	=30	=30	=30	=30	=30	=30	=30	=30
2r	.	2r	.	2r	.	2r	.	2r	.
!	!LO:DY:rj	!	!LO:DY:rj	!	!LO:DY:rj	!	!LO:DY:rj	!	!LO:DY:rj
(<4FF'<	pp	(<4FF'/	pp	(<4C'/	pp	(<4A'/ 4f	pp	(<4A'/ 4f	pp
4FF'<)	.	4FF'/)	.	4C'/)	.	4A'/) 4f	.	4A'/) 4f	.
=31	=31	=31	=31	=31	=31	=31	=31	=31	=31
!	!	!LO:TX:b:t=Benedictus\ntacet.	!	!	!	!	!	!	!
1FF;>	.	1FF;>	.	1C;>	.	1A;> 1f	.	1A;> 1f	.
!!LO:LB:g=original
==	==	==	==	==	==	==	==	==	==
*-	*-	*-	*-	*-	*-	*-	*-	*-	*-
!!!system-decoration: [(s1,s2,s3,s4)]
!!!RDF**kern: > = above
!!!RDF**kern: < = below
!!!RDF**kern: @ = marked note, color=blue
!!!RDF**dynam: < = "cres.", fontstyle="italic"
!!!RDF**dynam: > = "dimin", fontstyle="italic"
!!!RDF**kern: | = vertical stroke
!!!ENC: Marcin Jachim
!!!END: 2021-08-16
!!!EED: Jędrzej Mróz
!!!ESR: 2021-09-15
!!!YEC: Copyright 2022 Narodowy Instytut Fryderyka Chopina (https://polishscores.org)
!!!YEM: License CC-BY-4.0 (https://creativecommons.org/licenses/by/4.0)
